X:17
T:All the Way to Beckenham
C:Peter Jenkins, 1980
L:1/8
M:2/2
R:Reel
S:Colin Hume's website,  colinhume.com  - chords can also be printed below the stave.
Q:1/2=112
K:D
P:A
|: FE | "D"D2DD D2DD | "/"D2F2 A2d2 | "C"=c2cc c2B2 | "C"ABAG "D"F4 |\
"D"D2DD D2DD | "/"D2F2 A2d2 | "A7"c3d e2c2 | "D"d6 :|
P:B
|: de | "D"f2af dAFA | "/"D2AD BDAD | "C"=c2eG gGeG | "/"e=f^fg- ged=c |\
"D"f2af dAFA | "/"fg^ga- afed | "A7"ceAc eAce | "D"dd'af d2 :|

